Backpack-Common/Icons/Assets/Media.xcassets/speaker-sm.imageset/speaker-sm.svg

<svg viewBox="0 0 24 24" fill="none" xmlns="http://www.w3.org/2000/svg">
<path d="M13.5952 1.8713C14.7207 1.0352 16.5 1.70279 16.5 2.96114V21.0389C16.5 22.2973 14.7206 22.9648 13.5952 22.1286L7.32437 17.4694C7.13268 17.327 6.88509 17.2483 6.62858 17.2483H3.14135C1.40643 17.2483 0 16.0731 0 14.6234V9.37598C0 7.92628 1.40643 6.75106 3.14135 6.75106H6.62865C6.88514 6.75106 7.13271 6.67239 7.3244 6.52999L13.5952 1.8713Z" fill="#161616"/>
<path d="M21.7608 6.2915C21.4791 5.97197 20.9423 5.90479 20.5619 6.14146C20.1815 6.37814 20.1015 6.82904 20.3833 7.14858C21.579 8.50462 22.2858 10.1819 22.2858 12C22.2858 13.8181 21.579 15.4954 20.3833 16.8514C20.1015 17.171 20.1815 17.6219 20.5619 17.8585C20.9423 18.0952 21.4791 18.028 21.7608 17.7085C23.1677 16.1129 24 14.1371 24 12C24 9.86294 23.1677 7.88709 21.7608 6.2915Z" fill="#161616"/>
<path d="M19.611 8.80497C19.3857 8.45528 18.8655 8.32526 18.4492 8.51456C18.033 8.70387 17.8782 9.14081 18.1035 9.4905C18.5841 10.2362 18.8573 11.0902 18.8573 12C18.8573 12.9098 18.5841 13.7638 18.1035 14.5095C17.8782 14.8592 18.033 15.2961 18.4492 15.4854C18.8655 15.6747 19.3857 15.5447 19.611 15.195C20.2239 14.244 20.5715 13.155 20.5715 12C20.5715 10.8449 20.2239 9.75595 19.611 8.80497Z" fill="#161616"/>
</svg>

<svg xmlns="http://www.w3.org/2000/svg" viewBox="0 0 24 24"><path d="M13.595 1.871c1.126-.836 2.905-.168 2.905 1.09V21.04c0 1.258-1.78 1.926-2.905 1.09l-6.27-4.66a1.17 1.17 0 0 0-.696-.22H3.14C1.406 17.248 0 16.072 0 14.622V9.376c0-1.45 1.406-2.625 3.141-2.625H6.63c.256 0 .504-.079.695-.221zm8.165 4.421c-.28-.32-.818-.387-1.198-.15-.38.236-.46.687-.179 1.007 1.196 1.356 1.903 3.033 1.903 4.851s-.707 3.495-1.903 4.851c-.281.32-.201.77.179 1.008.38.236.917.169 1.199-.15C23.168 16.113 24 14.137 24 12s-.832-4.113-2.24-5.708"/><path d="M19.611 8.805c-.225-.35-.745-.48-1.162-.29-.416.189-.57.626-.346.976A4.6 4.6 0 0 1 18.857 12a4.6 4.6 0 0 1-.753 2.51c-.226.35-.071.786.345.975.416.19.937.06 1.162-.29.613-.951.96-2.04.96-3.195a5.87 5.87 0 0 0-.96-3.195"/></svg>
